icons/Volume50_filled.svg

<svg width="24" height="24" viewBox="0 0 24 24" fill="none" xmlns="http://www.w3.org/2000/svg">
<path fill-rule="evenodd" clip-rule="evenodd" d="M11.313,3.99801c1.121,-1.03477 2.937,-0.23967 2.937,1.28591v13.43218c0,1.5255 -1.816,2.3206 -2.937,1.2859l-4.53443,-4.1857c-0.04618,-0.0426 -0.10671,-0.0663 -0.16956,-0.0663h-2.60906c-0.96648,-0.0001 -1.74995,-0.7836 -1.74995,-1.75v-4.00007c0,-0.9665 0.7835,-1.75 1.75,-1.75h2.60902c0.06284,0 0.12339,-0.02367 0.16957,-0.0663zM16.2981,8.64124c0.2929,-0.2929 0.7678,-0.2929 1.0607,0c0.441,0.44108 0.7909,0.96471 1.0296,1.54096c0.2387,0.5763 0.3616,1.194 0.3616,1.8178c0,0.6238 -0.1229,1.2414 -0.3616,1.8177c-0.2387,0.5763 -0.5886,1.1 -1.0296,1.5411c-0.2929,0.2928 -0.7678,0.2928 -1.0607,0c-0.2929,-0.2929 -0.2929,-0.7678 0,-1.0607c0.3018,-0.3018 0.5412,-0.6601 0.7045,-1.0544c0.1633,-0.3943 0.2474,-0.8169 0.2474,-1.2437c0,-0.4268 -0.0841,-0.8494 -0.2474,-1.2437c-0.1633,-0.3943 -0.4027,-0.7526 -0.7045,-1.0544c-0.2929,-0.2929 -0.2929,-0.76777 0,-1.06066z" fill="#002B51"/>
</svg>

<svg width="24" height="24" viewBox="0 0 24 24" fill="none" xmlns="http://www.w3.org/2000/svg">
<path fill-rule="evenodd" clip-rule="evenodd" d="M11.313 3.99801C12.434 2.96324 14.25 3.75834 14.25 5.28392V18.7161C14.25 20.2416 12.434 21.0367 11.313 20.002L6.77857 15.8163C6.73239 15.7737 6.67186 15.75 6.60901 15.75L3.99995 15.75C3.03347 15.7499 2.25 14.9664 2.25 14V9.99993C2.25 9.03343 3.0335 8.24993 4 8.24993H6.60902C6.67186 8.24993 6.73241 8.22626 6.77859 8.18363L11.313 3.99801ZM16.2981 8.64124C16.591 8.34834 17.0659 8.34834 17.3588 8.64124C17.7998 9.08232 18.1497 9.60595 18.3884 10.1822C18.6271 10.7585 18.75 11.3762 18.75 12C18.75 12.6238 18.6271 13.2414 18.3884 13.8177C18.1497 14.394 17.7998 14.9177 17.3588 15.3588C17.0659 15.6516 16.591 15.6516 16.2981 15.3588C16.0052 15.0659 16.0052 14.591 16.2981 14.2981C16.5999 13.9963 16.8393 13.638 17.0026 13.2437C17.1659 12.8494 17.25 12.4268 17.25 12C17.25 11.5732 17.1659 11.1506 17.0026 10.7563C16.8393 10.362 16.5999 10.0037 16.2981 9.7019C16.0052 9.409 16.0052 8.93413 16.2981 8.64124Z" fill="#002B51"/>
</svg>
